X:1
T:Quick March EHo.080
T:Quick March EHo.080
T:Hill
C:Hill
L:1/8
Q:1/4=120
M:2/4
K:F
V:1 treble 
V:1
!p! a3 (g/a/) | c'bge |!f! fc/f/ aa | af/a/ c'c' |!p! a3 (g/a/) | c'bge |!f! fc/f/ ag | fa [Af]2 :| %8
!p! c'3 c'/c'/ | c'a f'c'/c'/ | c'a fg | b a2 z |!f! c'3 c'/c'/ | c'a f'e' | e'd'c'=b | %15
 c'c'/c'/ c'd'/_b/ |!p! a2{b} ag/a/ |{c'} bbge |!f! fc/f/ aa | af/a/ c'c' |!p! a3 g/(a/ | c')bge | %22
 fc/f/ ag | fa [Af]2 |:!p! FF/F/ FA | cc/c/ cf | (ag)ga | c'bag |!p! fF/F/ FA | cc/c/ cf | %30
!f! ag/g/ gc' | af/f/ f2 :| %32

